X: 25731
T: Mary Horne's
R: jig
M: 6/8
K: Amixolydian
|:a2e ecc|dcc A3|dcd BBB|fee A2e|
a2e ecc|dcc A3|dcd Bfe|aaa A2 e:|
|:cec AAA|cde dfe|cec AAA|dcd GBd|
cec AAA|cde dfe|dcd Bfe|aaa A2 e:|
|:a2e cec|Adc Aec|Aae cec|Bdf fee|
a2e cec|Adc Aec|dcd Bfe|aaa A2 e:|
|:cec AAA|adf ece|cec AAA|dcd GBd|
cec AAA|adf ece|dcd Bfe|aaa A2 e:|

